X:1030
T:Bairisch-Polka "Alleweil a bißl drahn" - schottisch/schottische/scottish
B:"(1.) Spielheft für Okarina", V. Derschmidt, Oberösterreichische Landesarbeitsgemeinschaft fuer Volkslied/Volksmusik/Volkstanz, Linz 1992
A:aus Arnreit
Z:abc transcription Simon Wascher
N:please mail errors to: simon.wascher@chello.at
M:2/4
L:1/16
K:G
|:BBBB B2d2|c6d2|c3d c3d|B6d2|
gggg f2e2|f2c2c4|gggg f2e2|g2B2 B2d2|
BBBB B2d2|c6d2|c3d c3d|B6d2|
g2d2 d2cd|e2A2A4|e2de f2ef|g2g2g4:|
K:C
|:e4d2c2|c2B2 B3d|B2c2 B2A2|A2G2G4|
e4d2e2|f2B2 B3g|f2B2 B3g|e2c2 c2G2|
e4d2c2|c2B2 B3d|B2c2 B2A2|G6e2|
e4f2e2|e4d2e2|g2f2 A2B2|c2c2c4:|


